src/icons/add-snapshot.svg

<?xml version="1.0" encoding="UTF-8"?>
<svg xmlns="http://www.w3.org/2000/svg" xmlns:xlink="http://www.w3.org/1999/xlink" width="32" height="32" viewBox="0 0 32 32" version="1.1">
<g id="surface1">
<path style=" stroke:none;fill-rule:nonzero;fill:rgb(0%,0%,0%);fill-opacity:1;" d="M 29.441406 7.039062 L 23.707031 7.042969 C 23.53125 6.980469 23.160156 6.390625 22.964844 6.074219 C 22.472656 5.289062 21.960938 4.480469 21.121094 4.480469 L 10.878906 4.480469 C 10.039062 4.480469 9.527344 5.289062 9.035156 6.074219 C 8.839844 6.390625 8.46875 6.980469 8.320312 7.039062 L 2.558594 7.039062 C 1.5 7.039062 0.640625 7.898438 0.640625 8.960938 L 0.640625 25.601562 C 0.640625 26.660156 1.5 27.519531 2.558594 27.519531 L 29.441406 27.519531 C 30.5 27.519531 31.359375 26.660156 31.359375 25.601562 L 31.359375 8.960938 C 31.359375 7.898438 30.5 7.039062 29.441406 7.039062 M 20.480469 17.921875 L 16.640625 17.921875 L 16.640625 21.761719 C 16.640625 21.929688 16.570312 22.089844 16.453125 22.210938 C 16.332031 22.332031 16.167969 22.398438 16 22.394531 C 15.648438 22.398438 15.359375 22.113281 15.359375 21.761719 L 15.359375 17.921875 L 11.519531 17.921875 C 11.175781 17.90625 10.902344 17.625 10.902344 17.28125 C 10.902344 16.933594 11.175781 16.652344 11.519531 16.640625 L 15.359375 16.640625 L 15.359375 12.800781 C 15.359375 12.445312 15.644531 12.160156 16 12.160156 C 16.355469 12.160156 16.640625 12.445312 16.640625 12.800781 L 16.640625 16.640625 L 20.480469 16.640625 C 20.820312 16.660156 21.085938 16.941406 21.085938 17.28125 C 21.085938 17.621094 20.820312 17.902344 20.480469 17.921875 M 20.480469 17.921875 "/>
</g>
</svg>

<svg role="img" viewBox="0 0 32 32" xmlns="http://www.w3.org/2000/svg"><path d="m29.441 7.04-5.734.003c-.176-.063-.547-.652-.742-.969-.492-.785-1.004-1.594-1.844-1.594H10.88c-.84 0-1.352.81-1.844 1.594-.195.317-.566.906-.715.965H2.56A1.922 1.922 0 0 0 .64 8.961V25.6c0 1.06.859 1.919 1.918 1.919H29.44c1.059 0 1.918-.86 1.918-1.918V8.96a1.922 1.922 0 0 0-1.918-1.922M20.48 17.92h-3.84v3.84a.638.638 0 0 1-.641.636.638.638 0 0 1-.64-.636v-3.84h-3.84a.641.641 0 0 1 0-1.281h3.84V12.8c0-.356.285-.64.64-.64.355 0 .64.284.64.64v3.84h3.84a.641.641 0 0 1 0 1.28m0 0" style="stroke:none;fill-rule:nonzero;fill:rgb(0%,0%,0%);fill-opacity:1"/></svg>
